dist/img/wap.svg

<svg width="23" height="23" viewBox="0 0 23 23" fill="none" xmlns="http://www.w3.org/2000/svg">
<path fill-rule="evenodd" clip-rule="evenodd" d="M19.7915 4.0092C17.7212 1.94635 14.9678 0.809804 12.0345 0.808594C5.99019 0.808594 1.07098 5.70413 1.06854 11.7212C1.06773 13.6446 1.57262 15.5222 2.53229 17.1772L0.976562 22.8324L6.7898 21.3148C8.39158 22.1844 10.1949 22.6426 12.0301 22.6431H12.0347C18.0783 22.6431 22.9981 17.7472 23.0004 11.7299C23.0016 8.81373 21.862 6.07191 19.7915 4.0092ZM12.0345 20.8001H12.0307C10.3953 20.7994 8.79138 20.362 7.3918 19.5357L7.05912 19.339L3.60946 20.2397L4.53023 16.8924L4.31344 16.5492C3.40105 15.105 2.91926 13.4357 2.92007 11.7218C2.92196 6.72064 7.01077 2.6518 12.0382 2.6518C14.4727 2.6526 16.7611 3.59733 18.4819 5.31189C20.2027 7.02645 21.1498 9.30545 21.149 11.7292C21.1468 16.7308 17.0583 20.8001 12.0345 20.8001ZM17.034 14.0065C16.76 13.8699 15.4129 13.2104 15.1616 13.1193C14.9107 13.0283 14.7278 12.983 14.5453 13.2559C14.3626 13.5287 13.8376 14.1431 13.6776 14.3249C13.5177 14.5069 13.3581 14.5298 13.084 14.3932C12.81 14.2568 11.9271 13.9687 10.8805 13.0397C10.066 12.3167 9.51616 11.4237 9.35624 11.1508C9.19659 10.8777 9.35489 10.7443 9.47645 10.5943C9.77307 10.2277 10.0701 9.84341 10.1614 9.66154C10.2528 9.47953 10.207 9.32024 10.1384 9.1838C10.0701 9.04736 9.52211 7.70515 9.29384 7.15899C9.07125 6.62748 8.84555 6.69926 8.67725 6.69093C8.5176 6.683 8.33485 6.68139 8.1521 6.68139C7.96949 6.68139 7.67261 6.74954 7.42138 7.02268C7.17029 7.2957 6.46252 7.95531 6.46252 9.29752C6.46252 10.6397 7.44434 11.9364 7.5813 12.1184C7.71826 12.3004 9.51346 15.0547 12.262 16.2357C12.9157 16.517 13.426 16.6846 13.8241 16.8103C14.4805 17.0178 15.0776 16.9885 15.5498 16.9183C16.0763 16.84 17.1708 16.2586 17.3993 15.6217C17.6276 14.9847 17.6276 14.4388 17.559 14.3249C17.4906 14.2112 17.3079 14.1431 17.034 14.0065Z" fill="white"/>
</svg>

<svg width="23" height="23" fill="none" xmlns="http://www.w3.org/2000/svg"><path fill-rule="evenodd" clip-rule="evenodd" d="M19.791 4.01A10.921 10.921 0 0012.034.808C5.99.809 1.072 5.704 1.07 11.72a10.856 10.856 0 001.463 5.456L.977 22.832l5.813-1.517a10.995 10.995 0 005.24 1.328h.005c6.043 0 10.963-4.896 10.965-10.913a10.82 10.82 0 00-3.209-7.72zM12.034 20.8h-.003a9.137 9.137 0 01-4.64-1.264l-.332-.197-3.45.9.921-3.347-.217-.343a9.016 9.016 0 01-1.393-4.827c.002-5.001 4.09-9.07 9.118-9.07 2.435 0 4.723.945 6.444 2.66a8.995 8.995 0 012.667 6.417c-.002 5.002-4.09 9.071-9.115 9.071zm5-6.793c-.274-.137-1.621-.797-1.872-.888-.251-.09-.434-.136-.617.137-.182.273-.707.887-.867 1.069-.16.182-.32.205-.594.068-.274-.136-1.157-.424-2.204-1.353-.814-.723-1.364-1.616-1.524-1.89-.16-.272-.001-.406.12-.556.297-.366.594-.75.685-.932.092-.182.046-.342-.023-.478-.068-.137-.616-1.479-.844-2.025-.223-.532-.448-.46-.617-.468-.16-.008-.342-.01-.525-.01s-.48.069-.73.342c-.252.273-.96.932-.96 2.275 0 1.342.982 2.638 1.12 2.82.136.182 1.931 2.937 4.68 4.118a15.71 15.71 0 001.562.574c.656.208 1.254.178 1.726.108.526-.078 1.62-.66 1.85-1.296.228-.637.228-1.183.159-1.297-.068-.114-.251-.182-.525-.318z" fill="#fff"/></svg>
